src/assets/icons/mail.svg

<svg width="16" height="16" viewBox="0 0 16 16" fill="none" xmlns="http://www.w3.org/2000/svg">
<path fill-rule="evenodd" clip-rule="evenodd" d="M1.53206 3.19067L8 7.71823L14.4679 3.19067C14.3477 2.95283 14.1003 2.7878 13.8182 2.7878H2.18182C1.89966 2.7878 1.65233 2.95283 1.53206 3.19067ZM14.5455 4.91191L8.41706 9.20178C8.16665 9.37708 7.83335 9.37708 7.58294 9.20178L1.45455 4.91191V12.2423C1.45455 12.6407 1.78348 12.9696 2.18182 12.9696H13.8182C14.2165 12.9696 14.5455 12.6407 14.5455 12.2423V4.91191ZM0 3.51507C0 2.31341 0.980157 1.33325 2.18182 1.33325H13.8182C15.0198 1.33325 16 2.31341 16 3.51507V12.2423C16 13.444 15.0198 14.4242 13.8182 14.4242H2.18182C0.980157 14.4242 0 13.444 0 12.2423V3.51507Z" fill="#9EA8DD"/>
</svg>

<svg width="16" height="16" fill="none" xmlns="http://www.w3.org/2000/svg">
  <path fill-rule="evenodd" clip-rule="evenodd" d="M1.532 3.19 8 7.719l6.468-4.527a.732.732 0 0 0-.65-.403H2.182a.732.732 0 0 0-.65.403Zm13.014 1.722-6.129 4.29a.727.727 0 0 1-.834 0l-6.128-4.29v7.33c0 .399.328.728.727.728h11.636a.732.732 0 0 0 .728-.728v-7.33ZM0 3.515c0-1.202.98-2.182 2.182-2.182h11.636c1.202 0 2.182.98 2.182 2.182v8.727c0 1.202-.98 2.182-2.182 2.182H2.182A2.186 2.186 0 0 1 0 12.242V3.515Z" fill="#9EA8DD"/>
</svg>
